icon-themes/breeze_svg/cmd/lc_italic.svg

<svg viewBox="0 0 24 24" xmlns="http://www.w3.org/2000/svg"><path d="m9 4v1h5l-6 14h-3v1h10v-1h-5l6-14h3v-1z" fill="#4d4d4d"/></svg>

<svg xmlns="http://www.w3.org/2000/svg" viewBox="0 0 24 24">
 <path 
     style="fill:#4d4d4d" 
     d="M 9 4 L 9 5 L 14 5 L 8 19 L 5 19 L 5 20 L 15 20 L 15 19 L 10 19 L 16 5 L 19 5 L 19 4 L 9 4 z "
     />
 </svg>
